X:235
T: MIR AUCH WAR EIN LEBEN AUFGEGANGEN
N: B0283
O: Europa, Mitteleuropa, Deutschland
R: Stimmungs - Lied
M: 4/4
L: 1/16
K: G
D2G2 | B6B2d3BA2G2 | G3FF4z4
A2B2 | c6c2c3Ad2c2 | c4B4z4
B2B2 | e6B2f3BB2B2 | g8g2e2
c2A2 | G2B2d4d2cBdcBA | A4G4z4

